svgs/sharp-thin/envelopes.svg

<svg xmlns="http://www.w3.org/2000/svg" viewBox="0 0 576 512"><!--! Font Awesome Pro 7.1.0 by @fontawesome - https://fontawesome.com License - https://fontawesome.com/license (Commercial License) Copyright 2025 Fonticons, Inc. --><path fill="currentColor" d="M560 48l0 65.8-4.7 3.5-219.3 160.8-219.3-160.8-4.7-3.5 0-65.8 448 0zM112 368l0-234.3 219.3 160.8 4.7 3.5 4.7-3.5 219.3-160.8 0 234.3-448 0zm0-336l-16 0 0 352 480 0 0-352-464 0zM16 136l0-8-16 0 0 344c0 4.4 3.6 8 8 8l472 0 0-16-464 0 0-328z"/></svg>

<svg xmlns="http://www.w3.org/2000/svg" viewBox="0 0 576 512"><!--! Font Awesome Pro 6.6.0 by @fontawesome - https://fontawesome.com License - https://fontawesome.com/license (Commercial License) Copyright 2024 Fonticons, Inc. --><path d="M560 48l0 65.8-4.7 3.5L336 278.1 116.7 117.3l-4.7-3.5L112 48l448 0zm0 85.7L560 368l-448 0 0-234.3L331.3 294.5l4.7 3.5 4.7-3.5L560 133.7zM112 32L96 32l0 16 0 320 0 16 16 0 448 0 16 0 0-16 0-320 0-16-16 0L112 32zM64 128l-48 0L0 128l0 16L0 464l0 16 16 0 448 0 16 0 0-16 0-48-16 0 0 48L16 464l0-320 48 0 0-16z"/></svg>
